icons/assets/Group 623.svg

<svg width="76" height="76" viewBox="0 0 76 76" fill="none" xmlns="http://www.w3.org/2000/svg">
<circle opacity="0.5" cx="15" cy="61" r="15" fill="#D1F681"/>
<path d="M55.1909 8C53.5899 8 52.0247 8.47478 50.6935 9.36429C49.3622 10.2538 48.3246 11.5181 47.7119 12.9973C47.0992 14.4765 46.9389 16.1042 47.2513 17.6745C47.5636 19.2449 48.3346 20.6873 49.4667 21.8194C50.5989 22.9516 52.0413 23.7226 53.6116 24.0349C55.182 24.3473 56.8096 24.187 58.2889 23.5743C59.7681 22.9616 61.0324 21.924 61.9219 20.5927C62.8114 19.2615 63.2862 17.6963 63.2862 16.0952C63.2837 13.949 62.43 11.8914 60.9124 10.3738C59.3948 8.85622 57.3372 8.00252 55.1909 8V8ZM55.1909 21.0952C54.202 21.0952 53.2353 20.802 52.4131 20.2526C51.5908 19.7032 50.95 18.9223 50.5715 18.0087C50.1931 17.095 50.0941 16.0897 50.287 15.1198C50.4799 14.1499 50.9561 13.259 51.6554 12.5597C52.3547 11.8604 53.2456 11.3842 54.2155 11.1913C55.1854 10.9984 56.1907 11.0974 57.1044 11.4758C58.018 11.8543 58.7989 12.4951 59.3483 13.3174C59.8977 14.1396 60.1909 15.1063 60.1909 16.0952C60.1884 17.4205 59.6608 18.6909 58.7237 19.628C57.7866 20.5651 56.5163 21.0927 55.1909 21.0952Z" fill="#0A3B70"/>
<path d="M57.5711 24.1904H52.8092C51.453 24.1906 50.1125 24.4805 48.8774 25.0405C47.6423 25.6006 46.541 26.418 45.6473 27.438C44.2548 29.0315 43.4278 31.0404 43.2949 33.1523C43.2949 33.3238 43.2949 33.4952 43.2949 33.6666V36.5238C44.6974 37.2219 45.7976 38.4068 46.3902 39.8571V33.7142C46.3927 32.0117 47.0695 30.3795 48.2725 29.1747C49.4754 27.9699 51.1067 27.2907 52.8092 27.2857H57.5711C59.2753 27.2882 60.909 27.9663 62.114 29.1713C63.3191 30.3764 63.9972 32.0101 63.9997 33.7142V56.3333H46.8568V59.4285H67.0949V33.7142C67.0949 31.1884 66.0915 28.766 64.3055 26.9799C62.5194 25.1938 60.097 24.1904 57.5711 24.1904Z" fill="#0A3B70"/>
<path d="M20.9038 8C19.3027 8 17.7376 8.47478 16.4064 9.36429C15.0751 10.2538 14.0375 11.5181 13.4248 12.9973C12.8121 14.4765 12.6518 16.1042 12.9641 17.6745C13.2765 19.2449 14.0475 20.6873 15.1796 21.8194C16.3118 22.9516 17.7542 23.7226 19.3245 24.0349C20.8949 24.3473 22.5225 24.187 24.0017 23.5743C25.481 22.9616 26.7453 21.924 27.6348 20.5927C28.5243 19.2615 28.9991 17.6963 28.9991 16.0952C28.9966 13.949 28.1429 11.8914 26.6252 10.3738C25.1076 8.85622 23.0501 8.00252 20.9038 8V8ZM20.9038 21.0952C19.9149 21.0952 18.9482 20.802 18.126 20.2526C17.3037 19.7032 16.6629 18.9223 16.2844 18.0087C15.906 17.095 15.807 16.0897 15.9999 15.1198C16.1928 14.1499 16.669 13.259 17.3683 12.5597C18.0676 11.8604 18.9585 11.3842 19.9284 11.1913C20.8983 10.9984 21.9036 11.0974 22.8173 11.4758C23.7309 11.8543 24.5118 12.4951 25.0612 13.3174C25.6106 14.1396 25.9038 15.1063 25.9038 16.0952C25.9038 17.4213 25.3771 18.6931 24.4394 19.6308C23.5017 20.5685 22.2299 21.0952 20.9038 21.0952Z" fill="#0A3B70"/>
<path d="M32.8095 33.2C32.6766 31.088 31.8496 29.0791 30.4571 27.4857C29.5668 26.4557 28.4659 25.6287 27.2288 25.0602C25.9917 24.4918 24.6471 24.1952 23.2857 24.1904H18.5238C15.9979 24.1904 13.5755 25.1938 11.7895 26.9799C10.0034 28.766 9 31.1884 9 33.7142L9 59.4285H29.2381V56.3333H12.0952V33.7142C12.0978 32.0101 12.7759 30.3764 13.9809 29.1713C15.186 27.9663 16.8196 27.2882 18.5238 27.2857H23.2857C24.9899 27.2882 26.6236 27.9663 27.8286 29.1713C29.0337 30.3764 29.7118 32.0101 29.7143 33.7142V39.8666C30.3145 38.4306 31.4139 37.2602 32.8095 36.5714V33.7142C32.8095 33.5428 32.8095 33.3714 32.8095 33.2Z" fill="#0A3B70"/>
<path d="M38.0484 16.5713C35.9022 16.5738 33.8446 17.4275 32.327 18.9451C30.8094 20.4627 29.9557 22.5203 29.9531 24.6665C29.9509 25.6125 30.1186 26.5513 30.4484 27.438C30.8145 28.454 31.385 29.3843 32.1246 30.1713C32.8814 30.9859 33.798 31.6357 34.8173 32.08C35.8365 32.5243 36.9365 32.7536 38.0484 32.7536C39.1603 32.7536 40.2602 32.5243 41.2795 32.08C42.2987 31.6357 43.2154 30.9859 43.9722 30.1713C44.7118 29.3843 45.2822 28.454 45.6484 27.438C45.9782 26.5513 46.1459 25.6125 46.1436 24.6665C46.1411 22.5203 45.2874 20.4627 43.7698 18.9451C42.2522 17.4275 40.1946 16.5738 38.0484 16.5713ZM38.0484 29.6665C37.0595 29.6665 36.0928 29.3733 35.2705 28.8239C34.4483 28.2745 33.8074 27.4936 33.429 26.5799C33.0506 25.6663 32.9515 24.661 33.1445 23.6911C33.3374 22.7212 33.8136 21.8303 34.5129 21.131C35.2121 20.4317 36.103 19.9555 37.0729 19.7626C38.0428 19.5697 39.0482 19.6687 39.9618 20.0471C40.8754 20.4256 41.6563 21.0664 42.2057 21.8887C42.7551 22.7109 43.0484 23.6776 43.0484 24.6665C43.0484 25.9926 42.5216 27.2644 41.5839 28.2021C40.6462 29.1397 39.3745 29.6665 38.0484 29.6665Z" fill="#0A3B70"/>
<path d="M46.3807 34.857C44.6961 33.4956 42.5942 32.7558 40.4283 32.7618H35.6664C33.1405 32.7618 30.7181 33.7652 28.932 35.5512C27.146 37.3373 26.1426 39.7597 26.1426 42.2856V67.9998H49.9521V42.2856C49.9512 40.8589 49.6298 39.4507 49.0117 38.1649C48.3935 36.8791 47.4944 35.7487 46.3807 34.857ZM46.8569 64.9046H29.2378V42.2856C29.2375 41.4559 29.3993 40.6342 29.714 39.8665C30.3142 38.4305 31.4136 37.2601 32.8092 36.5713C33.6945 36.1225 34.6739 35.8907 35.6664 35.8951H40.4283C41.4208 35.8907 42.4002 36.1225 43.2854 36.5713C44.6879 37.2695 45.7882 38.4544 46.3807 39.9046C46.6954 40.6723 46.8571 41.494 46.8569 42.3237V64.9046Z" fill="#0A3B70"/>
</svg>

<?xml version="1.0" encoding="utf-8"?>
<!-- Generator: Adobe Illustrator 26.0.1, SVG Export Plug-In . SVG Version: 6.00 Build 0)  -->
<svg version="1.1" id="Layer_1" xmlns="http://www.w3.org/2000/svg" xmlns:xlink="http://www.w3.org/1999/xlink" x="0px" y="0px"
	 viewBox="0 0 76 76" style="enable-background:new 0 0 76 76;" xml:space="preserve">
<style type="text/css">
	.st0{opacity:0.5;fill:#D1F681;enable-background:new    ;}
	.st1{fill:#0A3B70;}
	.st2{fill:#FFFFFF;stroke:#0A3B70;stroke-width:3;stroke-miterlimit:10;}
</style>
<circle class="st0" cx="15" cy="61" r="15"/>
<path class="st1" d="M55.2,8c-1.6,0-3.2,0.5-4.5,1.4c-1.3,0.9-2.4,2.2-3,3.6c-0.6,1.5-0.8,3.1-0.5,4.7c0.3,1.6,1.1,3,2.2,4.1
	c1.1,1.1,2.6,1.9,4.1,2.2c1.6,0.3,3.2,0.2,4.7-0.5c1.5-0.6,2.7-1.7,3.6-3c0.9-1.3,1.4-2.9,1.4-4.5c0-2.1-0.9-4.2-2.4-5.7
	C59.4,8.9,57.3,8,55.2,8L55.2,8z M55.2,21.1c-1,0-2-0.3-2.8-0.8c-0.8-0.5-1.5-1.3-1.8-2.2c-0.4-0.9-0.5-1.9-0.3-2.9
	c0.2-1,0.7-1.9,1.4-2.6s1.6-1.2,2.6-1.4c1-0.2,2-0.1,2.9,0.3c0.9,0.4,1.7,1,2.2,1.8c0.5,0.8,0.8,1.8,0.8,2.8c0,1.3-0.5,2.6-1.5,3.5
	C57.8,20.6,56.5,21.1,55.2,21.1z"/>
<path class="st1" d="M57.6,24.2h-4.8c-1.4,0-2.7,0.3-3.9,0.9c-1.2,0.6-2.3,1.4-3.2,2.4c-1.4,1.6-2.2,3.6-2.4,5.7c0,0.2,0,0.3,0,0.5
	v2.9c1.4,0.7,2.5,1.9,3.1,3.3v-6.1c0-1.7,0.7-3.3,1.9-4.5c1.2-1.2,2.8-1.9,4.5-1.9h4.8c1.7,0,3.3,0.7,4.5,1.9
	c1.2,1.2,1.9,2.8,1.9,4.5v22.6H46.9v3.1h20.2V33.7c0-2.5-1-4.9-2.8-6.7C62.5,25.2,60.1,24.2,57.6,24.2z"/>
<path class="st1" d="M20.9,8c-1.6,0-3.2,0.5-4.5,1.4c-1.3,0.9-2.4,2.2-3,3.6c-0.6,1.5-0.8,3.1-0.5,4.7c0.3,1.6,1.1,3,2.2,4.1
	c1.1,1.1,2.6,1.9,4.1,2.2c1.6,0.3,3.2,0.2,4.7-0.5c1.5-0.6,2.7-1.7,3.6-3c0.9-1.3,1.4-2.9,1.4-4.5c0-2.1-0.9-4.2-2.4-5.7
	C25.1,8.9,23.1,8,20.9,8L20.9,8z M20.9,21.1c-1,0-2-0.3-2.8-0.8c-0.8-0.5-1.5-1.3-1.8-2.2c-0.4-0.9-0.5-1.9-0.3-2.9
	c0.2-1,0.7-1.9,1.4-2.6c0.7-0.7,1.6-1.2,2.6-1.4c1-0.2,2-0.1,2.9,0.3c0.9,0.4,1.7,1,2.2,1.8c0.5,0.8,0.8,1.8,0.8,2.8
	c0,1.3-0.5,2.6-1.5,3.5S22.2,21.1,20.9,21.1z"/>
<path class="st1" d="M32.8,33.2c-0.1-2.1-1-4.1-2.4-5.7c-0.9-1-2-1.9-3.2-2.4c-1.2-0.6-2.6-0.9-3.9-0.9h-4.8c-2.5,0-4.9,1-6.7,2.8
	C10,28.8,9,31.2,9,33.7v25.7h20.2v-3.1H12.1V33.7c0-1.7,0.7-3.3,1.9-4.5c1.2-1.2,2.8-1.9,4.5-1.9h4.8c1.7,0,3.3,0.7,4.5,1.9
	c1.2,1.2,1.9,2.8,1.9,4.5v6.2c0.6-1.4,1.7-2.6,3.1-3.3v-2.9C32.8,33.5,32.8,33.4,32.8,33.2z"/>
<path class="st1" d="M38,16.6c-2.1,0-4.2,0.9-5.7,2.4c-1.5,1.5-2.4,3.6-2.4,5.7c0,0.9,0.2,1.9,0.5,2.8c0.4,1,0.9,1.9,1.7,2.7
	c0.8,0.8,1.7,1.5,2.7,1.9c1,0.4,2.1,0.7,3.2,0.7s2.2-0.2,3.2-0.7c1-0.4,1.9-1.1,2.7-1.9c0.7-0.8,1.3-1.7,1.7-2.7
	c0.3-0.9,0.5-1.8,0.5-2.8c0-2.1-0.9-4.2-2.4-5.7C42.3,17.4,40.2,16.6,38,16.6z M38,29.7c-1,0-2-0.3-2.8-0.8
	c-0.8-0.5-1.5-1.3-1.8-2.2c-0.4-0.9-0.5-1.9-0.3-2.9c0.2-1,0.7-1.9,1.4-2.6c0.7-0.7,1.6-1.2,2.6-1.4c1-0.2,2-0.1,2.9,0.3
	c0.9,0.4,1.7,1,2.2,1.8c0.5,0.8,0.8,1.8,0.8,2.8c0,1.3-0.5,2.6-1.5,3.5C40.6,29.1,39.4,29.7,38,29.7z"/>
<path class="st2" d="M45.3,36.1c-1.5-1.2-3.3-1.8-5.2-1.8h-4.2c-2.2,0-4.4,0.9-5.9,2.5c-1.6,1.6-2.5,3.7-2.5,5.9v22.6h21V42.6
	c0-1.3-0.3-2.5-0.8-3.6C47.1,37.8,46.3,36.9,45.3,36.1z"/>
</svg>
